X:126
T:She Hasn't the Thing She Thought She Had
R:slide
H:Cf. "The Abbeyfeale Slide" #98
H:Descended from the song "The Perfect Cure" composed by J. Blewett in the
H:1850's, which became very popular at the time.
D:Dan\'u: Ten Thousand Miles
Z:id:hn-slide-126
M:6/8
L:1/8
K:D
F2A D2d | c2B A2G | F2A DEF | E3 E2G |
F2A D2d | c2B A2G | F2A GFE |1 D3 D2E :|2 D3 D2e ||
|: f2e d2c | Bcd A2d | f2e def | e3 ede |
f2e d2c | Bcd A2G | F2A E2A |1 D3 D2e :|2 D3 D2E ||
P:Variations
|: FGA D2d | c2B A2G | FGA D2F | E3 EDE |
FGA D2d | c2B A2G | FAF EFE |1 D3 D2E :|2 D3 D2e ||
|: f2e d2A | BdB AFA | f2e d2f | e3 ede |
f2e d2c | BdB A2G | FAF EFE |1 D3 D2e :|2 D3 D2E ||

